X: 22567
T: Lady Madelina Sinclair's Birthday
R: strathspey
M: 4/4
K: Gmajor
|:B|G2 DG B,GDG|G2 B/A/G FAAB|G2 DG B,GDG|F/G/A Ac BGG:|
|:B|G/G/G BG dGBG|G/G/G BG FAAB|1 G/G/G BG dGBG|F/G/A Ac BGG:|
[2 GGAA BBcc|ddgd BGG||

